X:55
T:Lord Nelson’s Hornpipe. RHu.055
S:R.Hughes MS,1823,Whitchurch,Shrops.
R:.Hornpipe
A:Whitchurch, Shropshire
Z:Neil Brookes 2006
M:4/4
L:1/8
Q:1/2=90
K:G
Bc|dBec BAcA|GFAF G2Bc|dBgf edcB|AcFA GFED|!
dBec BAcA|GFAF Ggec|BAcA GFAF|G2G2G2:|!
|:Bc|dBgf edcB|edef g2gf|edcB cBAG|F2D2D2GF|!
EGAF GBdB|cege dBec|BAcA GFAF|G2G2G2:|

